X:77
T:Scatter the Mud (Becky)
M:6/8
L:1/8
K:ADor
"Am"eAA BAA|eAA ABd|eAA BAB|"G"dBG GBd|
"Am"eAA BAA|eAA AGE|"Em"GAB dge|dBA A3:|:
"Am"eaa egg|dBA ABd|eaa egg|"G"dBG GBd|
"Am"eaf# "G"g2|edB AAG|"Em"EGA Bdg|edB AA3:|
